static/img/icons/default.svg

<svg fill="none" height="26" viewBox="0 0 26 26" width="26" xmlns="http://www.w3.org/2000/svg"><g stroke="#fff" stroke-linecap="round" stroke-linejoin="round" stroke-width="1.5"><path d="m19.6 1c1.7552.19429 2.9366.63338 3.8184 1.62575 1.5816 1.77994 1.5816 4.6447 1.5816 10.37425 0 5.7296 0 8.5943-1.5816 10.3743-.8818.9924-2.0632 1.4314-3.8184 1.6257m-13.19999 0c-1.75516-.1943-2.93659-.6333-3.81838-1.6257-1.58163-1.78-1.58163-4.6447-1.58163-10.3743 0-5.72955 0-8.59431 1.58163-10.37425.88179-.99237 2.06322-1.43146 3.81838-1.62575"/><path d="m19.6667 8.37054-6.6667 2.96296-6.66667-2.96296"/><path d="m18.1246 6.94427-3.5-1.55556c-1.0343-.45967-2.2149-.45967-3.2492 0l-3.49995 1.55556c-1.44452.642-2.37545 2.07449-2.37545 3.65523v4.801c0 1.5808.93093 3.0133 2.37545 3.6553l3.49995 1.5555c1.0343.4597 2.2149.4597 3.2492 0l3.5-1.5555c1.4445-.642 2.3754-2.0745 2.3754-3.6553v-4.801c0-1.58074-.9309-3.01323-2.3754-3.65523z"/><path d="m13 11.3334v9.1666"/></g></svg>

<svg width="26" height="26" viewBox="0 0 26 26" fill="none" xmlns="http://www.w3.org/2000/svg">
<path d="M19.6 1C21.3552 1.19429 22.5366 1.63338 23.4184 2.62575C25 4.40569 25 7.27045 25 13C25 18.7296 25 21.5943 23.4184 23.3743C22.5366 24.3667 21.3552 24.8057 19.6 25M6.40001 25C4.64485 24.8057 3.46342 24.3667 2.58163 23.3743C1 21.5943 1 18.7296 1 13C1 7.27045 1 4.40569 2.58163 2.62575C3.46342 1.63338 4.64485 1.19429 6.40001 1" stroke="white" stroke-width="1.5" stroke-linecap="round" stroke-linejoin="round"/>
<path d="M19.6667 8.37054L13 11.3335L6.33333 8.37054" stroke="white" stroke-width="1.5" stroke-linecap="round" stroke-linejoin="round"/>
<path d="M18.1246 6.94427L14.6246 5.38871C13.5903 4.92904 12.4097 4.92904 11.3754 5.38871L7.87545 6.94427C6.43093 7.58627 5.5 9.01876 5.5 10.5995V15.4005C5.5 16.9813 6.43093 18.4138 7.87545 19.0558L11.3754 20.6113C12.4097 21.071 13.5903 21.071 14.6246 20.6113L18.1246 19.0558C19.5691 18.4138 20.5 16.9813 20.5 15.4005V10.5995C20.5 9.01876 19.5691 7.58627 18.1246 6.94427Z" stroke="white" stroke-width="1.5" stroke-linecap="round" stroke-linejoin="round"/>
<path d="M13 11.3334V20.5" stroke="white" stroke-width="1.5" stroke-linecap="round" stroke-linejoin="round"/>
</svg>
